.local/share/icons/Gruvbox-Plus-Dark/emotes/symbolic/face-sick-symbolic.svg

<svg width="16" height="16" version="1.1" xmlns="http://www.w3.org/2000/svg">
  <defs>
    <style type="text/css" id="current-color-scheme">.ColorScheme-Text { color:#ebdbb2; } .ColorScheme-Highlight { color:#458588; }</style>
  </defs>
  <path class="ColorScheme-Text" fill="currentColor" d="m8 1c-3.87 0-7 3.13-7 7 0 3.86 3.13 7 7 7s7-3.14 7-7c0-3.87-3.13-7-7-7zm-3 4c0.55 0 1 0.45 1 1s-0.45 1-1 1-1-0.45-1-1 0.45-1 1-1zm6 0c0.55 0 1 0.45 1 1s-0.45 1-1 1-1-0.45-1-1 0.45-1 1-1zm-6.71 2.98c0.09 0 0.19 0.03 0.27 0.08 0.73 0.44 1.18 1.16 1.35 1.94h4.18c0.18-0.78 0.63-1.47 1.35-1.91 0.11-0.07 0.24-0.09 0.37-0.06 0.43 0.1 0.53 0.66 0.16 0.9-1.231 0.7516-1.253 2.382-0.31 3.19 0.5 0.46-0.19 1.21-0.69 0.75-0.5677-0.5097-0.77-1.154-0.94-1.87h-4.06c-0.1238 1.015-0.7172 1.638-0.94 1.84-0.5 0.46-1.19-0.29-0.69-0.75 1.08-1.003 0.769-2.531-0.31-3.19-0.4492-0.2549-0.2408-0.92 0.26-0.92z"/>
</svg>

<svg xmlns="http://www.w3.org/2000/svg" width="16" height="16" version="1.1">
 <path style="fill:#ebdbb2" d="M 8,1 C 4.13,1 1,4.13 1,8 1,11.86 4.13,15 8,15 11.87,15 15,11.86 15,8 15,4.13 11.87,1 8,1 Z M 5,5 C 5.55,5 6,5.45 6,6 6,6.55 5.55,7 5,7 4.45,7 4,6.55 4,6 4,5.45 4.45,5 5,5 Z M 11,5 C 11.55,5 12,5.45 12,6 12,6.55 11.55,7 11,7 10.45,7 10,6.55 10,6 10,5.45 10.45,5 11,5 Z M 4.29,7.98 C 4.38,7.98 4.48,8.01 4.56,8.06 5.29,8.5 5.74,9.22 5.91,10 H 10.09 C 10.27,9.22 10.72,8.53 11.44,8.09 11.55,8.02 11.68,8 11.81,8.03 12.24,8.13 12.34,8.69 11.97,8.93 11.02,9.51 10.7,10.74 11.28,11.68 11.38,11.84 11.52,12 11.66,12.12 12.16,12.58 11.47,13.33 10.97,12.87 10.77,12.68 10.58,12.45 10.44,12.21 10.2,11.84 10.08,11.41 10.03,11 H 5.97 C 5.92,11.41 5.8,11.8 5.56,12.18 5.41,12.43 5.24,12.65 5.03,12.84 4.53,13.3 3.84,12.55 4.34,12.09 4.48,11.96 4.62,11.81 4.72,11.65 5.3,10.71 4.98,9.48 4.03,8.9 3.66,8.69 3.72,8.13 4.13,8 4.15,8 4.17,8 4.19,8 4.22,7.99 4.25,7.98 4.29,7.98 Z"/>
</svg>
